X:2542
T:The Triumph
C:anon.
O:England
R:Reel
Z:C.G.P
F:http://abc.musicaviva.com/tunes/england/the-triumph.abc
%Posted at abcusers Jan 2nd 2001 by Johnny Adams.
M:2/4
L:1/8
Q:1/4=250
K:G
g2|dBBd|cBcA|Ggfe|e2dg|dcBA|BAGF|G2B2|G2:|
z2|:A2c2|B2d2|A2c2|B2d2|AAAc|BBBg|B2A2|G4:|
|:B2Bd|edcB|A2Ac|c2B2|ABcd|efge|dcBA|B2G2:|
W:
W:
W:  From Musica Viva - http://www.musicaviva.com
W:  the Internet center for free sheet music downloads.

